svg/color/aevo.svg

<svg width="80" height="80" viewBox="0 0 80 80" fill="none" xmlns="http://www.w3.org/2000/svg">
<circle cx="40" cy="40" r="40" fill="#4B00FF"/>
<path d="M61.0107 46.9117C60.7902 48.0357 60.4436 49.0441 59.9604 49.937C59.3618 51.0504 58.511 52.0693 57.3872 53.0042C56.3159 53.8865 55.2027 54.5273 54.0684 54.9159C52.9341 55.3046 51.4952 55.4937 49.7622 55.4937C47.4516 55.4937 45.3721 55.021 43.5236 54.0756C41.6751 53.1302 40.3097 51.7332 39.4274 49.8844C38.4612 51.5756 37.1168 52.9306 35.3839 53.9285C33.6509 54.9264 31.4978 55.4306 28.9141 55.4306C27.2231 55.4306 25.7002 55.168 24.3454 54.6533C23.001 54.1386 21.8457 53.3928 20.8795 52.4264C20.1128 51.6596 19.5035 50.7563 19.0624 49.7374C18.6213 48.7185 18.3902 47.5525 18.3902 46.2395C18.3902 44.9264 18.6423 43.7395 19.1465 42.6575C19.6506 41.5756 20.3333 40.6617 21.205 39.9159C22.0663 39.1596 23.0745 38.5714 24.2088 38.1512C25.3431 37.7311 26.53 37.5105 27.7693 37.5105C29.3447 37.4685 30.9096 37.4475 32.4535 37.4265C33.9974 37.4054 35.5624 37.3949 37.1378 37.3949V34.2752C37.1378 32.3109 36.5707 30.8718 35.4258 29.9685C34.281 29.0651 32.8001 28.6134 30.9516 28.6134C29.1031 28.6134 27.5697 29.0231 26.3514 29.8529C25.1436 30.6827 24.4819 32.0168 24.3559 33.876L19.6296 33.0252C19.7767 31.7227 20.1337 30.5882 20.6904 29.6008C21.3625 28.4033 22.2343 27.437 23.2846 26.6807C24.3454 25.9349 25.5532 25.3781 26.8976 25.0315C28.2524 24.6849 29.6178 24.5168 31.0041 24.5168C31.8549 24.5168 32.7161 24.6008 33.6089 24.7794C34.5016 24.958 35.3628 25.2101 36.2136 25.5567C37.0538 25.9033 37.8415 26.355 38.5557 26.9118C39.2699 27.4685 39.8686 28.1197 40.3727 28.8445C41.339 27.5 42.5467 26.4601 44.0066 25.7248C45.4665 24.9895 47.2941 24.6218 49.4997 24.6218C52.0098 24.6218 54.0159 25.0735 55.5388 25.9769C57.0617 26.8802 58.343 28.1407 59.3828 29.7584C60.265 31.1134 60.8637 32.584 61.1788 34.1807C61.4834 35.7773 61.6409 37.6575 61.6409 39.8214V41.3235L41.8746 41.3865V41.6176C41.8746 42.8571 42.0111 44.0546 42.2737 45.2311C42.5468 46.4075 42.9879 47.4474 43.6075 48.3508C44.2272 49.2542 45.0254 49.9895 46.0337 50.5462C47.042 51.1029 48.2708 51.3865 49.7412 51.3865C51.1591 51.3865 52.5139 50.9664 53.7848 50.1155C55.0556 49.2647 55.9064 47.9201 56.3265 46.0714L61.0107 46.9117ZM28.8931 41.1554C27.3912 41.1554 26.0888 41.5861 24.9965 42.458C23.8938 43.3298 23.3476 44.5693 23.3476 46.1869C23.3476 47.8046 23.8727 49.0441 24.9335 49.9159C25.9943 50.7878 27.2966 51.2185 28.83 51.2185C29.9433 51.2185 31.0461 51.0504 32.1174 50.7248C33.1992 50.3991 34.1235 49.8529 34.8902 49.0756C36.0035 47.9622 36.6862 46.8172 36.9067 45.6617C37.1378 44.5063 37.2533 43.2563 37.2533 41.9012V41.0924L28.8931 41.1554ZM56.6416 37.5105C56.5996 36.1659 56.442 34.937 56.1479 33.8445C55.8643 32.7416 55.3917 31.7962 54.7301 30.9874C54.1839 30.2941 53.4907 29.7269 52.6505 29.2857C51.7998 28.8445 50.7285 28.6239 49.4156 28.6239C48.3023 28.6239 47.3361 28.813 46.5273 29.2017C45.7186 29.5903 45.0044 30.105 44.3847 30.7668C43.576 31.6176 42.9669 32.6155 42.5678 33.771C42.1687 34.9265 41.9586 36.1764 41.9586 37.5315H56.6416V37.5105Z" fill="white"/>
</svg>

<svg xmlns="http://www.w3.org/2000/svg" width="80" height="80" fill="none" viewBox="0 0 80 80"><circle cx="40" cy="40" r="40" fill="#4B00FF"/><path fill="#fff" d="M61.01 46.912c-.22 1.124-.566 2.132-1.05 3.025-.598 1.113-1.449 2.132-2.573 3.067-1.071.883-2.184 1.523-3.319 1.912s-2.573.578-4.306.578q-3.466 0-6.238-1.418-2.773-1.419-4.097-4.192a10.75 10.75 0 0 1-4.043 4.044c-1.733.998-3.886 1.503-6.47 1.503-1.69 0-3.214-.263-4.569-.778a9.8 9.8 0 0 1-3.465-2.227 8.6 8.6 0 0 1-1.818-2.689c-.44-1.019-.672-2.184-.672-3.498 0-1.313.252-2.5.756-3.581a8 8 0 0 1 2.059-2.742 9.5 9.5 0 0 1 3.004-1.765c1.134-.42 2.321-.64 3.56-.64 1.576-.043 3.14-.064 4.685-.085 1.543-.02 3.108-.031 4.684-.031v-3.12c0-1.964-.567-3.403-1.712-4.306-1.145-.904-2.626-1.356-4.474-1.356s-3.382.41-4.6 1.24c-1.208.83-1.87 2.164-1.996 4.023l-4.726-.85c.147-1.303.504-2.438 1.06-3.425a8.9 8.9 0 0 1 2.595-2.92 11 11 0 0 1 3.613-1.65 16.5 16.5 0 0 1 4.106-.514c.85 0 1.712.084 2.605.262.893.179 1.754.431 2.605.778.84.346 1.628.798 2.342 1.355a8.8 8.8 0 0 1 1.817 1.933 9.9 9.9 0 0 1 3.634-3.12c1.46-.736 3.287-1.103 5.493-1.103 2.51 0 4.516.451 6.039 1.355q2.284 1.355 3.844 3.781a12.4 12.4 0 0 1 1.796 4.423c.304 1.596.462 3.477.462 5.64v1.503l-19.766.063v.23c0 1.24.136 2.438.399 3.614.273 1.176.714 2.216 1.334 3.12a7 7 0 0 0 2.426 2.195c1.008.557 2.237.84 3.707.84 1.418 0 2.773-.42 4.044-1.27s2.121-2.196 2.542-4.045zm-32.117-5.757c-1.502 0-2.804.431-3.896 1.303-1.103.872-1.65 2.111-1.65 3.729s.526 2.857 1.586 3.729 2.364 1.303 3.897 1.303c1.113 0 2.216-.169 3.287-.494a6.4 6.4 0 0 0 2.773-1.65c1.114-1.113 1.796-2.258 2.017-3.413a19.3 19.3 0 0 0 .346-3.76v-.81zm27.749-3.645c-.042-1.344-.2-2.573-.494-3.666-.284-1.102-.756-2.048-1.418-2.857a6.4 6.4 0 0 0-2.08-1.701c-.85-.442-1.922-.662-3.234-.662-1.114 0-2.08.189-2.889.578a7.1 7.1 0 0 0-2.142 1.565 8.2 8.2 0 0 0-1.817 3.004 11.4 11.4 0 0 0-.61 3.76h14.684z"/></svg>
